X:498
T: WIE LANG SOLL ICH MICH QUAELEN
N: F0949
O: Europa, Mitteleuropa, Deutschland
R: Liebes - Lied, Klage
M: 4/4
L: 1/16
K: A
E4 | ABABG2F2E4A4 | C4EDCDE6
A2 | F2B2d2B2A4AGFG | A4z8
E4 | ABABG2F2E4A4 | C4EDCDE6
A2 | F2B2d2B2A4AGFG | A4z8
A2B2 | c6B2A2G2A2c2 | B2e2B2G2E6
E2 | c6B2A2G2A2c2 | B2e2B2G2E4z2
(3EFG | ABABG2F2E4A4 | C4EDCDE6
A2 | F4d2B2A4G4 | A2B2c2f2e6
d2 | c2A2F2B2A4AGFG | A4z8

@@@ Tune index: 5929
